app/images/dist/icons/chat-icon.svg

<svg width="22" height="23" viewBox="0 0 22 23" fill="none" xmlns="http://www.w3.org/2000/svg">
<path d="M14.2967 0.0116187C14.2967 0.0116187 13.6292 0.0458478 12.7727 0.412955C11.9152 0.780917 10.7532 1.46892 9.40282 2.81926C6.70129 5.52079 5.7925 8.30104 5.7925 8.30104C5.73609 8.41077 5.70407 8.53139 5.69864 8.65465C5.69321 8.77791 5.7145 8.90089 5.76104 9.01515C5.80759 9.12941 5.87829 9.23226 5.96831 9.31663C6.05832 9.40101 6.16552 9.46493 6.28255 9.504C6.39957 9.54307 6.52367 9.55638 6.64632 9.543C6.76897 9.52962 6.88728 9.48988 6.99313 9.4265C7.09898 9.36312 7.18988 9.2776 7.25959 9.1758C7.3293 9.074 7.37617 8.95834 7.39699 8.83673C7.39699 8.83673 8.20052 6.48262 10.6334 4.04979C11.8493 2.83295 12.8274 2.23822 13.4675 1.96353C13.8817 1.7864 13.892 1.81806 14.0023 1.80351L14.9924 2.79273C13.2541 4.13194 11.6016 5.57896 10.0446 7.12527C6.41376 10.7553 3.03878 15.3343 3.03878 15.3343L6.67561 18.9711C6.67561 18.9711 11.2546 15.5953 14.8855 11.9653C18.5154 8.33527 20.8482 4.79855 20.8482 4.79855L17.2113 1.16172C17.2113 1.16172 16.8896 1.40731 16.4095 1.7496L14.912 0.252078C14.8305 0.173228 14.7341 0.111365 14.6285 0.070085C14.5229 0.0288049 14.4101 0.00893112 14.2967 0.0116187ZM19.9924 0.0116187C19.4473 0.0715196 18.8055 0.341929 17.9875 0.733852L21.276 4.02327C22.059 2.3854 22.3414 1.47748 21.4369 0.572975C20.9842 0.121152 20.5384 -0.0482821 19.9924 0.0116187ZM2.45004 15.923C1.3162 17.8142 0.982466 19.3827 0.89946 20.2812L0.177227 20.9769C0.0637504 21.0904 -3.38186e-09 21.2443 0 21.4048C3.38186e-09 21.5653 0.0637504 21.7192 0.177227 21.8326C0.290703 21.9461 0.44461 22.0099 0.60509 22.0099C0.76557 22.0099 0.919477 21.9461 1.03295 21.8326L1.75519 21.1104C2.65712 21.024 4.21198 20.6843 6.08687 19.5598L2.45004 15.923Z" fill="#FCFCFC"/>
</svg>

<svg width="22" height="23" fill="none" xmlns="http://www.w3.org/2000/svg"><path d="M14.297.012s-.668.034-1.524.401c-.858.368-2.02 1.056-3.37 2.406-2.702 2.702-3.61 5.482-3.61 5.482a.856.856 0 101.604.536s.804-2.354 3.236-4.787c1.216-1.217 2.194-1.812 2.835-2.086.414-.178.424-.146.534-.16l.99.989a52.431 52.431 0 00-4.947 4.332c-3.631 3.63-7.006 8.21-7.006 8.21l3.637 3.636s4.579-3.376 8.21-7.006c3.63-3.63 5.962-7.166 5.962-7.166l-3.637-3.637s-.321.245-.801.588L14.912.252a.856.856 0 00-.615-.24zm5.695 0c-.545.06-1.187.33-2.005.722l3.289 3.29c.783-1.639 1.065-2.547.16-3.451-.452-.452-.898-.621-1.444-.561zM2.45 15.923C1.316 17.814.982 19.383.9 20.281l-.723.696a.605.605 0 00.856.856l.722-.723c.902-.086 2.457-.426 4.332-1.55L2.45 15.923z" fill="#FCFCFC"/></svg>
